X: 566
U:~=!turn!
M:C
L:1/8
K:D
(gf) (.d.d) {/f}e2 e2 | (gf) dd Ad d2 | cB AB cd d2 | (gf) dd Ad d2 | gf dd {/f}e2 e2 || {/f}.g.a .f.g .e.f .d.e | .c.B .A.B .c.d d2 |]


